X: 4
P: Syndalspolska
S: handwritten MS of unknown origin, labelled "uppt. Hans [illegible]" at upper right
Z: 2007 John Chambers <jc@trillian.mit.edu>
M: 3/4
L: 1/8
K: D
|: ((3dcd f)>(A d)>(f | {g}a)>b af d>f | ((3fef g)(e c)>(e | a)>b af d>A |
|  ((3dcd f)>(A d)>(f | {g}a)>b af d>f | (3{g}fef ge c>e |1 c>d d2 [A2-D2-] :|2 cd [d4D4] |]
|: (3DFA d2 d>e | (3dcB c2 c>d | (3cBA B2 B>c | B>A [A2-A2-] [A2A2] |
|  F>D G2 G>A | G>F F2 F>G | (3FEF GE C>E | {C}D2 D2- D2 :|
